X: 33985
T: Reel A Aristide
R: reel
M: 4/4
K: Gmajor
BABc dBBA|GDBD ADD2|DBDB BcBA|GDBD ADD2|
BABc dBBA|GBGB ADGA|B2AB c2Bc|dBBA BGG2:|
BABc d2ef|gBBg gBfB|[M:6/4] e2dB c2Ac BG~G2|
[M:4/4] BABc d2ef|gBBg gbag|fdef g2Bc|
BABc d2ef|gBBg gBfB|[M:6/4] e2dB c2Ac BG~G2|
[M:4/4] BABc d2ef|gBBg gbag|fdef g2Bc|[M:6/4] dBAc BGGF G4||

